indhold/billeder/tuborg_nul_logo.svg

<?xml version="1.0" standalone="yes"?>
<svg xmlns="http://www.w3.org/2000/svg" width="882" height="204">
<path style="fill:#ffffff; stroke:none;" d="M0 0L0 204L882 204L882 0L0 0z"/>
<path style="fill:#253d81; stroke:none;" d="M42 167L92 167C92 157.774 92.7915 150.925 82 149L82 46C84.5743 46.0017 87.4566 45.7059 89.9568 46.4336C100.627 49.5396 93.721 65.0215 99.858 71.142C102.618 73.8945 114.452 74.634 116.397 70.6821C118.594 66.2165 117 57.9014 117 53L117 34C116.996 31.8397 117.505 28.4302 115.972 26.6435C113.804 24.1168 105.166 26.9838 102 26.9992C87.0008 27.0726 71.9994 27 57 27C47.4643 27 37.4841 27.8411 28 26.8264C25.3331 26.541 20.1558 24.1491 18.0278 26.6427C16.1916 28.7944 17.0002 33.3962 17 36L17 62C17.0002 65.0371 15.9641 70.7463 19.3179 72.3966C20.9822 73.2156 23.2052 72.9956 25 72.9985C28.5052 73.0041 32.7363 73.1703 34.821 69.7716C38.9687 63.0096 34.585 42.5984 48.9414 46.3218C52.6838 47.2924 52.9333 50.7032 52.9954 54C53.1332 61.3278 53 68.6708 53 76L53 121C53 128.35 54.1315 136.753 52.7716 143.985C51.6632 149.879 45.7856 149.115 43.0278 153.394C40.8232 156.813 42 163.09 42 167M222 89L222 48C222 42.8553 223.483 34.926 221.397 30.1481C220.228 27.4706 217.611 27.1331 214.999 27.0193C209.028 26.7591 202.977 26.9596 197 27.0008C194.484 27.0181 190.928 26.6257 189.603 29.3179C185.85 36.9463 193.008 40.5473 195.397 46.2091C197.642 51.5275 196 60.2875 196 66L196 116C196 126.171 195.107 137.234 198.548 147C205.943 167.986 231.799 174.538 251 165.179C270.893 155.483 273.752 131.558 270.725 112C269.327 102.964 266.048 92.3871 257.985 87.1335C245.782 79.1813 234.04 84.6252 222 89M555 149C548.493 150.125 544.11 152.914 544.02 159.999C543.995 161.965 543.888 164.613 545.603 165.972C547.875 167.772 552.307 167 555 167L579 167C582.171 166.993 586.361 167.577 587.566 163.852C588.69 160.378 588.203 155.154 585.566 152.498C582.425 149.335 577.967 149.095 577.148 143.985C576.025 136.981 577 129.091 577 122L577 77C588.372 96.5576 595.377 120.007 603.8 141C606.082 146.687 608.424 152.374 610.851 158C612.079 160.847 613.287 164.345 616.133 165.972C620.981 168.745 630.549 167.098 635.999 166.995C638.308 166.952 641.209 167.097 642.397 164.682C643.823 161.783 643 157.142 643 154L643 130L643 45C649.332 43.8704 653.81 40.9072 653.944 34.0008C653.983 32.0241 653.947 29.3944 652.258 28.0278C650.033 26.2281 645.65 27.0002 643 27L619 27C615.869 27.0064 611.435 26.3847 610.318 30.1481C609.306 33.5586 609.666 38.8208 612.318 41.3627C615.548 44.4589 620.036 44.9247 620.852 50.0154C621.924 56.7042 621 64.229 621 71L621 112C610.344 93.674 604.091 71.6665 596.2 52C593.617 45.5626 591.134 33.1474 585.606 28.7423C581.768 25.6832 574.588 27 570 27C564 27 557.999 26.9594 552 27.0008C549.791 27.016 546.583 26.6394 545.028 28.6034C544.073 29.8092 544.067 31.5491 544.023 33.0046C543.771 41.4509 549.025 40.9566 553.397 46.3904C554.932 48.2991 554.952 50.6692 554.995 53C555.597 84.9745 555 117.019 555 149M768 27L725 27C725 30.9275 723.833 37.1662 726.028 40.6096C728.597 44.6396 733.974 44.5411 734.852 50.0154C735.722 55.4435 735 61.5079 735 67L735 101C735 111.693 736.951 124.578 734.468 135C732.117 144.864 721.538 150.186 712 147.196C703.751 144.61 700.394 137.02 700.039 129C699.262 111.405 700 93.6131 700 76C700 67.7372 698.184 57.0354 700.318 49.044C701.67 43.9776 707.459 44.5047 709.972 40.6065C712.177 37.1868 711 30.9102 711 27L674 27C670.685 27 663.368 25.6492 661.028 28.6034C660.073 29.8092 660.067 31.5492 660.023 33.0046C659.771 41.4509 665.025 40.9566 669.397 46.3904C671.137 48.5535 670.981 51.3809 670.999 54C671.16 77.3308 671 100.669 671 124C671 136.982 671.267 150.573 682.015 159.671C688.488 165.151 696.785 167.169 705 168.155C727.727 170.883 756.293 163.822 756.985 136C757.441 117.691 757 99.315 757 81L757 59C757 55.6482 756.298 51.2719 757.603 48.108C759.224 44.1801 763.811 44.2198 766.397 41.3511C769.342 38.0829 768 31.085 768 27M775 27C775 30.9102 773.823 37.1869 776.028 40.6065C779.746 46.3743 785.834 44.4002 785.995 53C786.365 72.6511 786 92.345 786 112C786 122.286 787.48 133.831 785.852 143.985C784.899 149.926 778.963 149.207 776.179 153.418C773.884 156.889 775 163.025 775 167L863 167L863 120C858.604 120 851.003 118.549 847.43 121.603C843.769 124.733 843.694 131.684 842.25 136C839.569 144.014 833.969 146.736 826 147.714C823.365 148.037 819.668 148.541 817.318 146.972C814.263 144.934 815.001 140.15 815 137L815 110L815 69C815 62.8257 813.726 55.0277 815.318 49.0432C816.473 44.7029 820.766 44.3217 823.566 41.5015C825.812 39.2398 826.067 36.0324 825.977 33.0046C825.933 31.5491 825.927 29.8093 824.972 28.6034C822.632 25.6492 815.315 27 812 27L775 27M463 83C443.909 85.4654 428.045 99.0653 432.518 120C433.28 123.567 434.752 126.987 436.796 130C438.47 132.469 441.105 134.795 441.073 138C441.007 144.569 435.564 152.848 433.319 159C432.316 161.751 430.208 165.739 432.043 168.566C434.477 172.315 440.442 170.195 444 170.039C453.233 169.636 467.602 167.677 475.995 172.164C483.544 176.2 482.218 183.932 474.996 187.427C468.552 190.546 460.529 188.835 454 187C456.838 173.904 439.246 167.929 433.319 180.005C426.572 193.749 446.299 200.671 456 202.385C470.045 204.867 489.256 202.879 499.319 191.7C507.79 182.291 508.768 166.034 498.957 157.213C493.659 152.45 485.964 150.578 479 150.09C469.953 149.455 460.981 150.291 452 151C453.561 148.026 454.503 145.323 455 142C465.046 142.793 474.394 143.582 484 139.535C499.319 133.082 504.601 114.576 497.672 100C495.359 95.1347 491.627 91.1052 487 88.3526C484.022 86.5808 478.992 85.6174 477.032 82.5818C475.424 80.0922 476.507 76.6672 477 74L480 74C486.268 86.7046 503.949 76.6062 498.343 64.0039C493.898 54.0093 479.525 54.4205 472.015 60.3943C465.067 65.9219 463.07 74.5352 463 83M312 83.439C289.071 87.0498 282 106.345 282 127C282 138.11 283.547 149.284 291.21 157.985C299.381 167.262 313.119 170.278 325 168.572C348.832 165.15 356.008 145.49 356 124C355.996 112.5 353.434 100.483 344.907 92.1049C336.602 83.9459 323.155 81.6825 312 83.439M396 93C395.974 90.7884 396.373 87.5852 394.397 86.0278C392.303 84.3785 388.475 85.0011 386 85L364 85C364 88.873 363.078 94.1633 364.603 97.7909C365.964 101.03 369.25 102.248 369.852 106.015C371.671 117.398 370.079 130.468 369.999 142C369.957 148.17 366.625 149.034 364.603 154.104C363.118 157.826 364 163.051 364 167L404 167C404 163.216 404.964 157.846 403.397 154.329C401.966 151.118 397.958 150.227 396.603 146.896C395.102 143.204 396 137.915 396 134C396 123.59 391.806 105.16 404 101C404.627 103.105 405.21 105.059 406.653 106.791C419.086 121.713 438.146 94.9396 421.985 85.0093C420.159 83.8876 418.13 83.2766 416 83.1196C412.894 82.8907 409.773 83.6135 407 85C402.925 87.0371 399.708 90.4189 396 93M151 158L153 158C157.069 167.225 165.422 169.962 175 168.572C178.942 167.999 183.489 167.425 184.682 162.956C187.056 154.063 178.352 152.571 178.019 144.996C177.393 130.724 178 116.288 178 102C178 97.938 179.537 89.744 176.397 86.6034C173.256 83.4628 165.062 85 161 85C157.269 85 149.698 83.5766 146.603 86.0278C143.93 88.1455 144.55 95.178 146.027 97.8156C147.589 100.605 150.797 101.842 151.682 105.093C152.751 109.022 152 113.955 152 118C152 125.922 153.781 136.327 151.566 143.957C150.508 147.602 146.767 149.958 143.001 149.747C134.774 149.286 135 139.96 135 134L135 101C135 97.1571 136.208 90.668 133.972 87.3179C132.424 84.9979 129.484 85.0514 127 85.0046C121.34 84.8981 115.661 84.9617 110 85.0008C107.484 85.0181 103.928 84.6257 102.603 87.3179C98.4331 95.7946 107.751 99.3411 108.852 106.043C111.689 123.308 103.2 145.554 114.108 160.91C122.598 172.862 144.682 171.259 151 158z"/>
<path style="fill:#ffffff; stroke:none;" d="M462.133 99.0278C455.5 102.839 455.861 116.982 458.653 122.985C460.768 127.533 466.061 130.381 470.786 127.681C477.715 123.723 477.083 109.279 474.297 103.019C472.301 98.5348 466.533 96.4994 462.133 99.0278M318.001 100.562C312.655 101.135 309.588 105.007 308.376 110C306.193 118.992 306.59 128.923 307.87 138C308.982 145.891 311.881 152.028 320.996 150.866C327.192 150.076 329.252 144.511 329.946 139C331.154 129.404 332.169 118.415 329.196 109C327.636 104.061 323.46 99.9774 318.001 100.562M229.001 101.653C225.865 102.637 223.164 104.742 222.318 108.015C221.514 111.126 222 114.813 222 118C222 126.417 220.838 135.841 223.305 143.996C225.105 149.949 231.056 152.65 236.985 150.397C241.746 148.587 243.27 143.543 244.076 139C245.69 129.912 246.076 118.944 243.506 110C241.59 103.33 235.922 99.4793 229.001 101.653z"/>
</svg>

<?xml version="1.0" encoding="utf-8"?>
<!-- Generator: Adobe Illustrator 24.3.0, SVG Export Plug-In . SVG Version: 6.00 Build 0)  -->
<svg version="1.1" id="Layer_1" xmlns="http://www.w3.org/2000/svg" xmlns:xlink="http://www.w3.org/1999/xlink" x="0px" y="0px"
	 viewBox="0 0 882 204" style="enable-background:new 0 0 882 204;" xml:space="preserve">
<style type="text/css">
	.st0{fill:#253D81;}
</style>
<path class="st0" d="M42,167h50c0-9.2,0.8-16.1-10-18V46c2.6,0,5.5-0.3,8,0.4c10.7,3.1,3.8,18.6,9.9,24.7c2.8,2.8,14.6,3.5,16.5-0.5
	c2.2-4.5,0.6-12.8,0.6-17.7V34c0-2.2,0.5-5.6-1-7.4c-2.2-2.5-10.8,0.3-14,0.4c-15,0.1-30,0-45,0c-9.5,0-19.5,0.8-29-0.2
	c-2.7-0.3-7.8-2.7-10-0.2c-1.8,2.2-1,6.8-1,9.4v26c0,3-1,8.7,2.3,10.4C21,73.2,23.2,73,25,73c3.5,0,7.7,0.2,9.8-3.2
	C39,63,34.6,42.6,48.9,46.3c3.7,1,4,4.4,4.1,7.7c0.1,7.3,0,14.7,0,22v45c0,7.4,1.1,15.8-0.2,23c-1.1,5.9-7,5.1-9.7,9.4
	C40.8,156.8,42,163.1,42,167"/>
<g>
	<g>
		<g>
			<path class="st0" d="M270.7,112c-1.4-9-4.7-19.6-12.7-24.9c-12.2-7.9-24-2.5-36,1.9V48c0-5.1,1.5-13.1-0.6-17.9
				c-1.2-2.7-3.8-3-6.4-3.1c-6-0.3-12-0.1-18,0c-2.5,0-6.1-0.4-7.4,2.3c-3.8,7.6,3.4,11.2,5.8,16.9c2.2,5.3,0.6,14.1,0.6,19.8v50
				c0,10.2-0.9,21.2,2.5,31c7.4,21,33.3,27.5,52.5,18.2C270.9,155.5,273.8,131.6,270.7,112z M244.1,139.1c-0.8,4.5-2.3,9.6-7.1,11.4
				c-5.9,2.3-11.9-0.4-13.7-6.4c-2.5-8.2-1.3-17.6-1.3-26c0-3.2-0.5-6.9,0.3-10c0.9-3.3,3.6-5.4,6.7-6.4c6.9-2.2,12.6,1.6,14.5,8.4
				C246.1,119,245.7,130,244.1,139.1z"/>
		</g>
	</g>
</g>
<path class="st0" d="M555,149c-6.5,1.1-10.9,3.9-11,11c0,2-0.1,4.6,1.6,6c2.3,1.8,6.7,1,9.4,1h24c3.2,0,7.4,0.6,8.6-3.1
	c1.1-3.5,0.6-8.7-2-11.4c-3.1-3.2-7.6-3.4-8.4-8.5c-1.1-7-0.1-14.9-0.1-22V77c11.4,19.6,18.4,43,26.8,64c2.3,5.7,4.6,11.4,7.1,17
	c1.2,2.8,2.4,6.3,5.3,8c4.8,2.8,14.4,1.1,19.9,1c2.3,0,5.2,0.1,6.4-2.3c1.4-2.9,0.6-7.5,0.6-10.7v-24V45c6.3-1.1,10.8-4.1,10.9-11
	c0-2,0-4.6-1.7-6c-2.2-1.8-6.6-1-9.3-1h-24c-3.1,0-7.6-0.6-8.7,3.1c-1,3.4-0.7,8.7,2,11.2c3.2,3.1,7.7,3.6,8.5,8.7
	c1.1,6.7,0.1,14.2,0.1,21v41c-10.7-18.3-16.9-40.3-24.8-60c-2.6-6.4-5.1-18.9-10.6-23.3c-3.8-3.1-11-1.7-15.6-1.7c-6,0-12,0-18,0
	c-2.2,0-5.4-0.4-7,1.6c-1,1.2-1,2.9-1,4.4c-0.3,8.4,5,8,9.4,13.4c1.5,1.9,1.6,4.3,1.6,6.6C555.6,85,555,117,555,149"/>
<path class="st0" d="M768,27h-43c0,3.9-1.2,10.2,1,13.6c2.6,4,7.9,3.9,8.8,9.4c0.9,5.4,0.1,11.5,0.1,17v34c0,10.7,2,23.6-0.5,34
	c-2.4,9.9-12.9,15.2-22.5,12.2c-8.2-2.6-11.6-10.2-12-18.2c-0.8-17.6,0-35.4,0-53c0-8.3-1.8-19,0.3-27c1.4-5.1,7.1-4.5,9.7-8.4
	c2.2-3.4,1-9.7,1-13.6h-37c-3.3,0-10.6-1.4-13,1.6c-1,1.2-1,2.9-1,4.4c-0.3,8.4,5,8,9.4,13.4c1.7,2.2,1.6,5,1.6,7.6
	c0.2,23.3,0,46.7,0,70c0,13,0.3,26.6,11,35.7c6.5,5.5,14.8,7.5,23,8.5c22.7,2.7,51.3-4.3,52-32.2c0.5-18.3,0-36.7,0-55V59
	c0-3.4-0.7-7.7,0.6-10.9c1.6-3.9,6.2-3.9,8.8-6.8C769.3,38.1,768,31.1,768,27"/>
<path class="st0" d="M775,27c0,3.9-1.2,10.2,1,13.6c3.7,5.8,9.8,3.8,10,12.4c0.4,19.7,0,39.3,0,59c0,10.3,1.5,21.8-0.1,32
	c-1,5.9-6.9,5.2-9.7,9.4c-2.3,3.5-1.2,9.6-1.2,13.6h88v-47c-4.4,0-12-1.5-15.6,1.6c-3.7,3.1-3.7,10.1-5.2,14.4
	c-2.7,8-8.3,10.7-16.2,11.7c-2.6,0.3-6.3,0.8-8.7-0.7c-3.1-2-2.3-6.8-2.3-10v-27V69c0-6.2-1.3-14,0.3-20c1.2-4.3,5.4-4.7,8.2-7.5
	c2.2-2.3,2.5-5.5,2.4-8.5c0-1.5,0-3.2-1-4.4c-2.3-3-9.7-1.6-13-1.6H775"/>
<path class="st0" d="M396,93c0-2.2,0.4-5.4-1.6-7c-2.1-1.6-5.9-1-8.4-1h-22c0,3.9-0.9,9.2,0.6,12.8c1.4,3.2,4.6,4.5,5.2,8.2
	c1.8,11.4,0.2,24.5,0.1,36c0,6.2-3.4,7-5.4,12.1c-1.5,3.7-0.6,8.9-0.6,12.9h40c0-3.8,1-9.2-0.6-12.7c-1.4-3.2-5.4-4.1-6.8-7.4
	c-1.5-3.7-0.6-9-0.6-12.9c0-10.4-4.2-28.8,8-33c0.6,2.1,1.2,4.1,2.7,5.8c12.4,14.9,31.5-11.9,15.3-21.8c-1.8-1.1-3.9-1.7-6-1.9
	c-3.1-0.2-6.2,0.5-9,1.9C402.9,87,399.7,90.4,396,93"/>
<path class="st0" d="M151,158h2c4.1,9.2,12.4,12,22,10.6c3.9-0.6,8.5-1.1,9.7-5.6c2.4-8.9-6.3-10.4-6.7-18c-0.6-14.3,0-28.7,0-43
	c0-4.1,1.5-12.3-1.6-15.4S165.1,85,161,85c-3.7,0-11.3-1.4-14.4,1c-2.7,2.1-2.1,9.2-0.6,11.8c1.6,2.8,4.8,4,5.7,7.3
	c1.1,3.9,0.3,8.9,0.3,12.9c0,7.9,1.8,18.3-0.4,26c-1.1,3.6-4.8,6-8.6,5.8c-8.2-0.5-8-9.8-8-15.7v-33c0-3.8,1.2-10.3-1-13.7
	c-1.5-2.3-4.5-2.3-7-2.3c-5.7-0.1-11.3,0-17,0c-2.5,0-6.1-0.4-7.4,2.3c-4.2,8.5,5.1,12,6.2,18.7c2.8,17.3-5.7,39.5,5.3,54.9
	C122.6,172.9,144.7,171.3,151,158z"/>
<path class="st0" d="M462.1,99c4.4-2.5,10.2-0.5,12.1,4c2.8,6.3,3.4,20.7-3.5,24.7c-4.7,2.7-10-0.2-12.1-4.7
	C455.8,117,455.5,102.8,462.1,99l0.9-16c-19.1,2.5-35,16.1-30.5,37c0.8,3.6,2.2,7,4.3,10c1.7,2.5,4.3,4.8,4.3,8
	c-0.1,6.6-5.5,14.8-7.8,21c-1,2.8-3.1,6.7-1.3,9.6c2.4,3.7,8.4,1.6,12,1.5c9.2-0.4,23.6-2.4,32,2.1c7.5,4,6.2,11.8-1,15.3
	c-6.4,3.1-14.5,1.4-21-0.4c2.8-13.1-14.8-19.1-20.7-7c-6.7,13.7,13,20.7,22.7,22.4c14,2.5,33.3,0.5,43.3-10.7
	c8.5-9.4,9.4-25.7-0.4-34.5c-5.3-4.8-13-6.6-20-7.1c-9-0.6-18,0.2-27,0.9c1.6-3,2.5-5.7,3-9c10,0.8,19.4,1.6,29-2.5
	c15.3-6.5,20.6-25,13.7-39.5c-2.3-4.9-6-8.9-10.7-11.6c-3-1.8-8-2.7-10-5.8c-1.6-2.5-0.5-5.9,0-8.6h3c6.3,12.7,23.9,2.6,18.3-10
	c-4.4-10-18.8-9.6-26.3-3.6c-6.8,5.4-8.8,14-8.9,22.5"/>
<g>
	<g>
		<path class="st0" d="M344.9,92.1c-8.3-8.2-21.7-10.4-32.9-8.7c-22.9,3.6-30,22.9-30,43.6c0,11.1,1.5,22.3,9.2,31
			c8.2,9.3,21.9,12.3,33.8,10.6c23.8-3.4,31-23.1,31-44.6C356,112.5,353.4,100.5,344.9,92.1z M330,139c-0.7,5.5-2.8,11.1-9,11.9
			c-9.1,1.1-12-5-13.1-12.9c-1.3-9.1-1.7-19,0.5-28c1.2-5,4.3-8.8,9.6-9.4c5.5-0.6,9.6,3.5,11.2,8.4
			C332.2,118.4,331.2,129.4,330,139z"/>
	</g>
</g>
</svg>
